static/assets/img/icons/theme/weather/cloud-fog.svg

<svg height="24" viewBox="0 0 24 24" width="24" xmlns="http://www.w3.org/2000/svg"><g fill="none" fill-rule="evenodd"><path d="m0 0h24v24h-24z" opacity="0"/><g fill="#000"><path d="m5.74714567 14.0425758c-1.65304205-1.0685402-2.74714567-2.9277872-2.74714567-5.0425758 0-3.3137085 2.6862915-6 6-6 2.7957591 0 5.1449096 1.91215918 5.8109738 4.5h2.4390262c2.0710678 0 3.75 1.67893219 3.75 3.75 0 2.0710678-1.6789322 3.75-3.75 3.75h-9c-.96182105 0-1.83906822-.3621038-2.50285433-.9574242z"/><path d="m4.5 17h16c.2761424 0 .5.2238576.5.5s-.2238576.5-.5.5h-16c-.27614237 0-.5-.2238576-.5-.5s.22385763-.5.5-.5zm0 2h4c.27614237 0 .5.2238576.5.5s-.22385763.5-.5.5h-4c-.27614237 0-.5-.2238576-.5-.5s.22385763-.5.5-.5zm12 2h4c.2761424 0 .5.2238576.5.5s-.2238576.5-.5.5h-4c-.2761424 0-.5-.2238576-.5-.5s.2238576-.5.5-.5zm-5-2h9c.2761424 0 .5.2238576.5.5s-.2238576.5-.5.5h-9c-.2761424 0-.5-.2238576-.5-.5s.2238576-.5.5-.5zm-7 2h9c.2761424 0 .5.2238576.5.5s-.2238576.5-.5.5h-9c-.27614237 0-.5-.2238576-.5-.5s.22385763-.5.5-.5z" opacity=".3"/></g></g></svg>

<svg width="24px" height="24px" viewBox="0 0 24 24" version="1.1" xmlns="http://www.w3.org/2000/svg" xmlns:xlink="http://www.w3.org/1999/xlink">
    <title>Icon For Cloud-fog</title>
    <g stroke="none" stroke-width="1" fill="none" fill-rule="evenodd">
        <polygon points="0 0 24 0 24 24 0 24" opacity="0"></polygon>
        <path d="M5.74714567,14.0425758 C4.09410362,12.9740356 3,11.1147886 3,9 C3,5.6862915 5.6862915,3 9,3 C11.7957591,3 14.1449096,4.91215918 14.8109738,7.5 L17.25,7.5 C19.3210678,7.5 21,9.17893219 21,11.25 C21,13.3210678 19.3210678,15 17.25,15 L8.25,15 C7.28817895,15 6.41093178,14.6378962 5.74714567,14.0425758 Z" fill="#000000"></path>
        <path d="M4.5,17 L20.5,17 C20.7761424,17 21,17.2238576 21,17.5 C21,17.7761424 20.7761424,18 20.5,18 L4.5,18 C4.22385763,18 4,17.7761424 4,17.5 C4,17.2238576 4.22385763,17 4.5,17 Z M4.5,19 L8.5,19 C8.77614237,19 9,19.2238576 9,19.5 C9,19.7761424 8.77614237,20 8.5,20 L4.5,20 C4.22385763,20 4,19.7761424 4,19.5 C4,19.2238576 4.22385763,19 4.5,19 Z M16.5,21 L20.5,21 C20.7761424,21 21,21.2238576 21,21.5 C21,21.7761424 20.7761424,22 20.5,22 L16.5,22 C16.2238576,22 16,21.7761424 16,21.5 C16,21.2238576 16.2238576,21 16.5,21 Z M11.5,19 L20.5,19 C20.7761424,19 21,19.2238576 21,19.5 C21,19.7761424 20.7761424,20 20.5,20 L11.5,20 C11.2238576,20 11,19.7761424 11,19.5 C11,19.2238576 11.2238576,19 11.5,19 Z M4.5,21 L13.5,21 C13.7761424,21 14,21.2238576 14,21.5 C14,21.7761424 13.7761424,22 13.5,22 L4.5,22 C4.22385763,22 4,21.7761424 4,21.5 C4,21.2238576 4.22385763,21 4.5,21 Z" fill="#000000" opacity="0.3"></path>
    </g>
</svg>
